X:861
T:Comet Waltz
S:Bruce & Emmett's Drummers and Fifers Guide (1862), p. 86
M:3/4
L:1/8
Q:1/4=180
K:D
%%MIDI program 72
%%MIDI transpose 8
%%MIDI ratio 3 1
(3(cde)|f2fgfe|d2dedc|B2c2d2|A4F2|G2F2E2|B2A2C2|
E2D2D2|D2z2::ef|gfedcB|A2e2g2|fdcdAF|D2F2A2|
B2e2g2|b2c2d2|efedcB|A2z2de|f2fgfe|d2dedc|B2c2d2|
A4F2|G2F2E2|B2A2C2|E2D2D2|D2z2::AG|F2A2d2|
d2c2B2|c2e2g2|g4g2|fzd3c|Bze3c|dcedcB|ABAGFE|
F2A2d2|d2c2B2|c2e2g2|b4g2|fzd3c|Bze3c|dcBABc|d2z2:|
